X: 13749
T: Forget Me Not
R: reel
M: 4/4
K: Cmajor
{B}c2Bc AGED|CA,~A,2 G,A,CD|EGce dcAG|1 A~d3 dfed:|2 FEDF ECC2||
{B}c2gc acgc|fdec dcBc|Gc~c2 Gceg|aege d2eg|
ae(3eee gedc|cd(3edc dcAG|EGce dcAG|FEDF ECC2:|

